X:1
T:Peace Through the Blood
T:Peace Through the Blood
T:Anthony Johnson Showalter
T:Eliza Edmunds Hewitt, 1900
T:Public Domain Courtesy of the Cyber Hymnal™
T:Public Domain Courtesy of the Cyber Hymnal™
C:Anthony Johnson Showalter
Z:Public Domain
Z:Courtesy of the Cyber Hymnal™
%%score ( 1 2 ) 3
L:1/8
M:12/8
K:F
V:1 treble 
V:2 treble 
V:3 bass 
V:1
 [CF]2 [CG] | [FA]3 [FA]3 [FB]2 [FA] [EG]2 F | [Ec]3 [Fc]3 [Ec]3 z3 | %3
w: 1.~Come while|God is call- ing, hear His|word to- day,|
w: 2.~Sink the|past for- ev- er ’neath the|cleans- ing tide,|
w: 3.~Bless- ing|free and bound- less flow- ing|from a- bove,|
w: 4.~Tell the|joy- ful sto- ry ev- ery-|where you go,|
 [Fc]3 [CF]2 [CG] [FA]3 [GB]2 [FA] | [EG]6- [EG]3 [CF]2 [CG] | [FA]3 [FA]3 [FB]2 [FA] [EG]2 F | %6
w: Peace thro’ the blood of the|cross; * Take the|gift He of- fers, come with-|
w: Peace thro’ the blood of the|cross; * Let the|Ho- ly Spir- it in your|
w: Peace thro’ the blood of the|cross; * Ev- er-|last- ing mer- cy, ev- er-|
w: Peace thro’ the blood of the|cross; * Till, the|wide world o- ver, ran- somed|
 [Ec]3 [Fc]3 [Ec]3 z3 | [Fc]3 F2 [FG] [FA]3 [EG]2 [EG] | F6- F3 z3 |:"^Refrain" c6- [Fc]3 x3 | %10
w: out de- lay,|Peace thro’ the blood of the|cross. *||
w: heart a- bide,|Peace thro’ the blood of the|cross. *|Peace! won-|
w: last- ing love,|Peace thro’ the blood of the|cross. *||
w: souls shall know|Peace thro’ the blood of the|cross. *||
 d6- [Fd]3 z3 | B6- [EB]3 GAB | c6- [Fc]3 z3 |1 [Fc]3 [CF]2 [CG] [FA]3 [GB]2 [FA] | %14
w: ||||
w: der- ful|* peace! Peace! won- der-|* ful|* peace! Peace thro’ the blood|
w: ||||
w: ||||
 [EG]6- [EG]3 z3 :|2 [Fc]3 F2 [FG] [FA]3 [EG]2 [EG] || F6- F3 |] %17
w: |||
w: of *|the cross; Peace thro’ the blood|of *|
w: |||
w: |||
V:2
 x3 | x11 F | x12 | x12 | x12 | x11 F | x12 | x3 F2 x7 | F6- F3 x3 |: (F3 EFG A)Bc x3 | F3 FFF x6 | %11
 E3 GGF x6 | F3 FFE x6 |1 x12 | x12 :|2 x3 F2 x7 || F6- F3 |] %17
V:3
 [F,A,]2 [F,B,] | [F,C]3 [F,C]3 [F,D]2 [F,C] [F,B,]2 [F,A,] | [C,G,]3 [F,A,]3 [C,G,]3 z3 | %3
w: ~ ~|~ ~ ~ ~ ~ ~|~ ~ ~|
 [F,A,]3 [F,A,]2 [F,B,] [F,C]3 [E,C]2 [F,C] | [C,C]6- [C,C]3 [F,A,]2 [F,B,] | %5
w: ~ ~ ~ ~ ~ ~|~ * ~ ~|
 [F,C]3 [F,C]3 [F,D]2 [F,C] [F,B,]2 [F,A,] | [C,G,]3 [F,A,]3 [C,G,]3 z3 | %7
w: ~ ~ ~ ~ ~ ~|~ ~ ~|
 [F,A,]3 [A,,C]2 [B,,D] [C,C]3 [C,B,]2 [C,B,] | [F,A,]6- [F,A,]3 z3 |: %9
w: ~ ~ ~ ~ ~ ~|~ *|
 [F,A,]3 [C,G,][C,A,][C,B,] [F,A,]3 z3 | [B,,B,]3 [B,,B,][B,,B,][B,,B,] [B,,B,]3 z3 | %11
w: Peace! won- der- ful peace!|Peace! won- der- ful peace!|
 [C,G,]3 [E,C][E,C][D,C] [C,C]3 z3 | [F,A,]3 [A,C][A,C][G,B,] [F,A,]3 z3 |1 %13
w: Peace! won- der- ful peace!|Peace! won- der- ful peace!|
 [F,A,]3 [F,A,]2 [F,B,] [F,C]3 [E,C]2 [F,C] | [C,C]6- [C,C]3 z3 :|2 %15
w: ||
 [F,A,]3 [A,,C]2 [B,,D] [C,C]3 [C,B,]2 [C,B,] || [F,A,]6- [F,A,]3 |] %17
w: ||

